X:38
T:Bird in the Bush, The
R:reel
D:Oisin: Over the Moor to Maggie.
Z:id:hn-reel-38
M:C|
K:G
d2eB dB~B2|dBAB GAAG|EGAd BG~G2|BGBd g2ge|
d2eB dB~B2|dBAB ~G3E|DEGA B2eB|dBAd BG~G2:|
|:Bdef g2fg|afdf gfed|Bdef ~g3b|agab ~g3a|
bg~g2 agef|~g3e dBGE|DEGA B2eB|dBAd BG~G2:|
<end>
<start>
